X: 38261
T: St-Etienne
R: reel
M: 4/4
K: Dmajor
A2|f3ffgfe|dedc (3BcB A2|e3eefed|cBAG FAde|
f3ffgfe|dedc (3BcB AA|efed cBAG|FABc d2:|
|:AG|FdAF d2AG|FdAF d2cB|AecA eABc|d2(3cdc (3BcB AG|
FdAF d2AG|FdAF d2cB|AecA eABc|dfec d2:|

